X:29
T:Throw the Wood Laddie
N:from Orpheus Caledonius, I, 1733
N:from The Scottish Music List, Vol2 No 99
Z:Bruce Olson
L:1/8
M:3/4
K:F
(FC)|D2(F3/2G/) (~G3/2F/4G/4)|A4f c|d2(fd) (cA)|\
G4(FG)|A3 B (AG)|A2(GF) (FG)|(AGA) c (AG)|\
A2(GF)C2|D2(F3/2G/) (~G3/2F/4G/4)|A4(fg)|\
(ag) (fd) (cA)|(G3 A) (Bc)|d2(fd) (cA)|c2(dc) (AG)|\
A2(D3/2E/) (~E3/2D/4E/4)|F4||(fc)|d2 (f3/2g/) (~g3/2f/4g/4)|\
a4(fg)|a2(ba) (gf)|g4(fg)|(ag) (ab) (ag)|a2(gf) (fg)|\
(ag) (ab) (ag)|a2(gf)c2|d2(f3/2g/) (~g3/2f/4g/4)|a4f g|\
(ag) (fd) (cA)|(G3 A) (Bc)|d2(fd) (cA)|c2(dc) A G|\
A2 (D3/2E/) (~E3/2D/4E/4)|F4|]
